icons/svg/video-layout_12.svg

<svg width="12" height="12" viewBox="0 0 12 12" xmlns="http://www.w3.org/2000/svg"><title>format/video-layout_12</title><path d="M7.33333333 8L4.66666667 8l0 2-1 0 0-2L1 8l0-1 10 0 0 1-2.66666667 0 0 2-1 0 0-2zM1.5 1l9 0c.8284271 0 1.5.671572875 1.5 1.5l0 7c0 .82842712-.6715729 1.5-1.5 1.5l-9 0C.671572875 11 0 10.32842712 0 9.5l0-7C0 1.671572875.671572875 1 1.5 1zm0 1c-.27614237 0-.5.22385763-.5.5l0 7c0 .27614237.22385763.5.5.5l9 0c.2761424 0 .5-.22385763.5-.5l0-7c0-.27614237-.2238576-.5-.5-.5l-9 0zM11 7l0 1 0-1zM1 8l0-1 0 1zm3.66666667 2l-1 0 1 0zm3.66666666 0l-1 0 1 0z" fill-rule="nonzero" fill="#000"/></svg>

<?xml version="1.0" encoding="UTF-8"?>
<svg width="12px" height="12px" viewBox="0 0 12 12" version="1.1" xmlns="http://www.w3.org/2000/svg" xmlns:xlink="http://www.w3.org/1999/xlink">
    <!-- Generator: Sketch 60.1 (88133) - https://sketch.com -->
    <title>format/video-layout_12</title>
    <desc>Created with Sketch.</desc>
    <g id="format/video-layout_12" stroke="none" stroke-width="1" fill="none" fill-rule="evenodd">
        <path d="M1.5,1 L10.5,1 C11.3284271,1 12,1.67157288 12,2.5 L12,9.5 C12,10.3284271 11.3284271,11 10.5,11 L1.5,11 C0.671572875,11 0,10.3284271 0,9.5 L0,2.5 C0,1.67157288 0.671572875,1 1.5,1 Z M1.5,2 C1.22385763,2 1,2.22385763 1,2.5 L1,9.5 C1,9.77614237 1.22385763,10 1.5,10 L10.5,10 C10.7761424,10 11,9.77614237 11,9.5 L11,2.5 C11,2.22385763 10.7761424,2 10.5,2 L1.5,2 Z M1,7 L11,7 L11,8 L1,8 L1,7 Z M3.66666667,8 L4.66666667,8 L4.66666667,10 L3.66666667,10 L3.66666667,8 Z M7.33333333,8 L8.33333333,8 L8.33333333,10 L7.33333333,10 L7.33333333,8 Z" id="fill" fill="#171B1F"></path>
    </g>
</svg>
